X: 2301
T: Cary Owen.   a Jig.
T: Garryowen
O: Irish
%R: jig, air
B: Niel Gow & Sons "Complete Repository" v.2 p.30 #1
Z: 2021 John Chambers <jc:trillian.mit.edu>
M: 6/8
L: 1/8
K: F
% - - - - - - - - - -
% Voice 1 reformatted for 3 8-bar lines, for compactness and proofreading.
V: 1 staves=2
f | ~dcB ~AGF | A>BA A2f | ~dcB ~AGF | [GE][AF][GE] [G2E2]f | ~dcB AGF | ABA A2d | c>de f2A | [GE][AF][GE] [G2E2] :|
A/B/ | (A/B/c).A ~c2A | c2A c2f | d2B d2B | d2B d2e | f2(g {fg}a2)g | f2d c2A | cde f2A | [GE][AF][GE] G2 ||
A/B/ | {AB}c2A {AB}c2A | {AB}c2A c2f | d2B d2B | d2B d2e | f2(g {fg}a2)g | f2d c2A | cde f2A | [GE][AF][GE] [G2E2] |]
% - - - - - - - - - -
% Voice 2 preserves the staff layout in the book, which is a bit odd at bars 16,17.
V: 2 clef=bass middle=d
z | [f3F3] [f3F3] | [f3F3] [f3F3] | [f3F3] [f3F3] | [c3C3] [c3C3] | [f3F3] [f3F3] | [f3F3] [f2F2][bB] | [a3A3] [f3F3] | [c'3c3] [c'2c2] :|
z | [f3F3] [f3F3] | [f3F3] [f3F3] | [b3B3] [b3B3] | [b3B3] [b3B3] | [a3A3] [f3F3] | [f3F3] [f3F3] | [a3A3] [f3F3] | [c'3c3] [c'3c3] | [f3F3] [f3F3] |
[f3F3] [f3F3] | [b3B3] [b3B3] | [b3B3] [b3B3] | [a2A2][bB] [c'2c2][bB] | [a2A2][bB] [a2A2][fF] | [a3A3] [f3F3] | [c'3c3] [c'2c2] |]


